assets/youtube.svg

<?xml version="1.0" encoding="UTF-8"?>
<svg width="30px" height="30px" viewBox="0 0 30 30" version="1.1" xmlns="http://www.w3.org/2000/svg" xmlns:xlink="http://www.w3.org/1999/xlink">
    <!-- Generator: Sketch 46.2 (44496) - http://www.bohemiancoding.com/sketch -->
    <title>Youtube_Color</title>
    <desc>Created with Sketch.</desc>
    <defs></defs>
    <g id="Colors-usage" stroke="none" stroke-width="1" fill="none" fill-rule="evenodd">
        <g id="Colors" transform="translate(-1087.000000, -254.000000)">
            <g id="Youtube" transform="translate(1087.000000, 254.000000)">
                <path d="M0,14.7540984 C0,6.60563444 6.61518015,0 14.7754193,0 C22.9356585,0 29.5508386,6.60563444 29.5508386,14.7540984 C29.5508386,22.9025623 22.9356585,29.5081967 14.7754193,29.5081967 C6.61518015,29.5081967 0,22.9025623 0,14.7540984 Z" id="back" fill="#CE1312"></path>
                <path d="M22.4655738,11.7842682 C22.4655738,11.7842682 22.3116393,10.6760884 21.84,10.1880872 C21.2414754,9.54730295 20.5706557,9.5442875 20.2632787,9.50709688 C18.0609836,9.3442623 14.757541,9.3442623 14.757541,9.3442623 L14.7506557,9.3442623 C14.7506557,9.3442623 11.4472131,9.3442623 9.24491803,9.50709688 C8.93704918,9.5442875 8.26672131,9.54730295 7.66770492,10.1880872 C7.19606557,10.6760884 7.04262295,11.7842682 7.04262295,11.7842682 C7.04262295,11.7842682 6.8852459,13.0859397 6.8852459,14.3871087 L6.8852459,15.607363 C6.8852459,16.9090345 7.04262295,18.2102035 7.04262295,18.2102035 C7.04262295,18.2102035 7.19606557,19.3183833 7.66770492,19.8063845 C8.26672131,20.4471687 9.05311475,20.4270657 9.40327869,20.4939083 C10.6622951,20.6175419 14.7540984,20.6557377 14.7540984,20.6557377 C14.7540984,20.6557377 18.0609836,20.6507119 20.2632787,20.4878774 C20.5706557,20.4501842 21.2414754,20.4471687 21.84,19.8063845 C22.3116393,19.3183833 22.4655738,18.2102035 22.4655738,18.2102035 C22.4655738,18.2102035 22.6229508,16.9090345 22.6229508,15.607363 L22.6229508,14.3871087 C22.6229508,13.0859397 22.4655738,11.7842682 22.4655738,11.7842682 L22.4655738,11.7842682 Z" fill="#FFFFFF"></path>
                <polygon id="Path" fill="#CE1312" points="13.1291803 17.0859412 13.1286885 12.5672814 17.3808197 14.8344012"></polygon>
            </g>
        </g>
    </g>
</svg>

<svg width="30" height="30" viewBox="0 0 30 30" xmlns="http://www.w3.org/2000/svg">
	<title>Youtube logo</title>
	<g fill-rule="evenodd">
		<path d="M0 14.754C0 6.606 6.615 0 14.775 0s14.776 6.606 14.776 14.754c0 8.149-6.615 14.754-14.776 14.754C6.615 29.508 0 22.903 0 14.754z" fill="#CE1312"/>
		<path d="M22.466 11.784s-.154-1.108-.626-1.596c-.599-.64-1.27-.644-1.577-.68-2.202-.164-5.505-.164-5.505-.164h-.007s-3.304 0-5.506.163c-.308.037-.978.04-1.577.681-.472.488-.625 1.596-.625 1.596s-.158 1.302-.158 2.603v1.22c0 1.302.158 2.603.158 2.603s.153 1.108.625 1.596c.599.641 1.385.621 1.735.688 1.26.124 5.351.162 5.351.162s3.307-.005 5.51-.168c.307-.038.977-.04 1.576-.682.472-.488.626-1.596.626-1.596s.157-1.301.157-2.603v-1.22c0-1.301-.157-2.603-.157-2.603z" fill="#FFF"/>
		<path fill="#CE1312" d="M13.13 17.086l-.001-4.519 4.252 2.267z"/>
	</g>
</svg>
